X: 14
T: Mother's Delight
Z: RobSheldrick
S: https://thesession.org/tunes/257#setting52617
R: reel
M: 4/4
L: 1/8
K: Ddor
|:F3D FGGE|EFAF FECE|DddD e/e/efe|~d2 cd ABc/B/A|
d3c AGAc|c/c/AGE EDCE|DAdc (3AcA !accent!FA|cA!accent!GE EDEG:|
|:FAdA FEDF|E/E/EcG EDCE|FA^cd FEDF|EDCE ED[A,D]2|
D/F/AdA FEDF|E/E/EcE EDCE|~F3E FEDC|A,FEF ~D3E:|

